assets/img/icon-pc-pink.svg

<?xml version="1.0" encoding="UTF-8" standalone="no"?>
<svg width="181px" height="117px" viewBox="0 0 181 117" version="1.1" xmlns="http://www.w3.org/2000/svg" xmlns:xlink="http://www.w3.org/1999/xlink">
    <!-- Generator: Sketch 39 (31667) - http://www.bohemiancoding.com/sketch -->
    <title>Page 1</title>
    <desc>Created with Sketch.</desc>
    <defs>
        <polygon id="path-1" points="181 58.14835 181 0 0 0 0 58.14835 0 116.2967 181 116.2967"></polygon>
    </defs>
    <g id="Page-1" stroke="none" stroke-width="1" fill="none" fill-rule="evenodd">
        <g>
            <mask id="mask-2" fill="white">
                <use xlink:href="#path-1"></use>
            </mask>
            <g id="Clip-2"></g>
            <path d="M43.343,58.669 L138.704,58.669 L138.704,35.083 L43.343,35.083 L43.343,58.669 Z M140.204,61.669 C141.032,61.669 141.704,60.997 141.704,60.169 L141.704,33.583 C141.704,32.755 141.032,32.083 140.204,32.083 L41.843,32.083 C41.015,32.083 40.343,32.755 40.343,33.583 L40.343,60.169 C40.343,60.997 41.015,61.669 41.843,61.669 L140.204,61.669 Z" id="Fill-1" fill="#EC2978" mask="url(#mask-2)"></path>
            <path d="M160.1211,84.4757 L158.6211,85.0197 L157.8911,85.2847 C157.5661,85.4017 157.2971,85.6267 157.1211,85.9167 C157.0601,86.0157 157.0091,86.1237 156.9731,86.2387 C156.8411,86.6497 156.9011,87.0927 157.1211,87.4607 C157.1381,87.4887 157.1481,87.5197 157.1671,87.5467 L158.6211,89.6507 L160.1211,91.8217 L164.7911,98.5787 C164.8971,98.7327 164.8591,98.9447 164.7061,99.0497 L161.3021,101.4027 C161.2441,101.4427 161.1801,101.4627 161.1101,101.4627 C161.0571,101.4627 160.9221,101.4487 160.8311,101.3167 L160.1211,100.2897 L158.6211,98.1197 L157.1211,95.9487 L153.2061,90.2847 C152.9411,89.9017 152.5151,89.6627 152.0501,89.6387 C152.0231,89.6377 151.9981,89.6367 151.9721,89.6367 C151.8981,89.6367 151.8271,89.6497 151.7561,89.6607 C151.4001,89.7117 151.0711,89.8827 150.8331,90.1607 L150.2561,90.8327 L148.7561,92.5807 L145.9121,95.8967 L142.1271,70.0157 L148.7561,73.6957 L150.2561,74.5277 L151.7561,75.3597 L157.1211,78.3377 L158.6211,79.1697 L160.1211,80.0027 L164.9971,82.7087 L160.1211,84.4757 Z M169.3341,81.6847 L160.1211,76.5717 L158.6211,75.7387 L157.1211,74.9067 L151.7561,71.9287 L150.2561,71.0957 L148.7561,70.2637 L140.9321,65.9207 C140.4351,65.6447 139.8221,65.6737 139.3511,65.9987 C138.8821,66.3227 138.6381,66.8847 138.7201,67.4497 L139.3611,71.8357 L139.6571,73.8577 L143.1591,97.7997 L143.3781,99.2997 L143.4211,99.5907 C143.5041,100.1617 143.9081,100.6267 144.4561,100.7997 C144.4681,100.8037 144.4761,100.8117 144.4881,100.8147 C144.7801,100.8997 145.0821,100.8887 145.3591,100.7997 C145.6201,100.7167 145.8581,100.5667 146.0441,100.3507 L146.9451,99.2997 L148.2321,97.7997 L148.3101,97.7997 C148.5561,97.7997 148.7561,97.5997 148.7561,97.3547 L148.7561,97.1897 L150.2561,95.4407 L151.7561,93.6927 L151.8441,93.5897 L157.1211,101.2257 L158.3611,103.0207 C158.4371,103.1297 158.5341,103.2147 158.6211,103.3137 C159.0271,103.7747 159.5411,104.1137 160.1211,104.2947 C160.4391,104.3937 160.7691,104.4627 161.1101,104.4627 C161.7901,104.4627 162.4461,104.2577 163.0071,103.8717 L166.4111,101.5187 C167.9251,100.4727 168.3051,98.3897 167.2601,96.8737 L160.7411,87.4417 L169.1171,84.4067 C169.6701,84.2057 170.0551,83.7017 170.1011,83.1157 C170.1481,82.5297 169.8491,81.9697 169.3341,81.6847 L169.3341,81.6847 Z" id="Fill-3" fill="#EC2978" mask="url(#mask-2)"></path>
            <path d="M148.7559,97.1896 L148.7559,97.3546 C148.7559,97.5996 148.5559,97.7996 148.3109,97.7996 L148.2329,97.7996 L146.9449,99.2996 L146.0439,100.3506 C145.8589,100.5666 145.6199,100.7166 145.3599,100.7996 L148.3109,100.7996 C150.2099,100.7996 151.7559,99.2536 151.7559,97.3546 L151.7559,93.6926 L150.2559,95.4406 L148.7559,97.1896 Z" id="Fill-4" fill="#999B9E" mask="url(#mask-2)"></path>
            <path d="M44.2325,74.3986 L137.8135,74.3986 C138.5605,74.3986 139.2185,74.1856 139.6575,73.8576 L139.3615,71.8356 C138.9435,71.6176 138.4075,71.4806 137.8135,71.4806 L44.2325,71.4806 C42.9125,71.4806 41.8425,72.1336 41.8425,72.9396 C41.8425,73.7456 42.9125,74.3986 44.2325,74.3986" id="Fill-5" fill="#999B9E" mask="url(#mask-2)"></path>
            <path d="M44.2325,85.0978 L137.8135,85.0978 C139.1335,85.0978 140.2045,84.4448 140.2045,83.6388 C140.2045,82.8328 139.1335,82.1798 137.8135,82.1798 L44.2325,82.1798 C42.9125,82.1798 41.8425,82.8328 41.8425,83.6388 C41.8425,84.4448 42.9125,85.0978 44.2325,85.0978" id="Fill-6" fill="#999B9E" mask="url(#mask-2)"></path>
            <path d="M178,112.8517 C178,113.0967 177.8,113.2967 177.555,113.2967 L3.445,113.2967 C3.2,113.2967 3,113.0967 3,112.8517 L3,108.9607 C3,108.7157 3.2,108.5157 3.445,108.5157 L15.603,108.5157 L22.878,108.5157 L157.929,108.5157 L164.364,108.5157 L177.555,108.5157 C177.8,108.5157 178,108.7157 178,108.9607 L178,112.8517 Z M177.555,105.5157 L160.097,105.5157 C160.103,105.4357 160.121,105.3597 160.121,105.2787 L160.121,104.2947 C159.541,104.1137 159.027,103.7747 158.621,103.3137 C158.534,103.2147 158.437,103.1297 158.361,103.0207 L157.121,101.2257 L157.121,105.2787 C157.121,105.3667 157.092,105.4447 157.052,105.5157 L23.755,105.5157 C23.714,105.4447 23.686,105.3667 23.686,105.2787 L23.686,3.4967 C23.686,3.2227 23.907,2.9997 24.181,2.9997 L156.624,2.9997 C156.898,2.9997 157.121,3.2227 157.121,3.4967 L157.121,74.9067 L158.621,75.7387 L160.121,76.5717 L160.121,3.4967 C160.121,1.5687 158.553,-0.0003 156.624,-0.0003 L24.181,-0.0003 C22.254,-0.0003 20.686,1.5687 20.686,3.4967 L20.686,105.2787 C20.686,105.3597 20.704,105.4357 20.71,105.5157 L3.445,105.5157 C1.546,105.5157 0,107.0617 0,108.9607 L0,112.8517 C0,114.7507 1.546,116.2967 3.445,116.2967 L177.555,116.2967 C179.454,116.2967 181,114.7507 181,112.8517 L181,108.9607 C181,107.0617 179.454,105.5157 177.555,105.5157 L177.555,105.5157 Z" id="Fill-7" fill="#999B9E" mask="url(#mask-2)"></path>
            <path d="M148.7559,23.2785 L33.0889,23.2785 L33.0889,11.9595 C33.0889,11.7145 33.2899,11.5135 33.5349,11.5135 L148.3109,11.5135 C148.5559,11.5135 148.7559,11.7145 148.7559,11.9595 L148.7559,23.2785 Z M151.7559,11.9595 C151.7559,10.0595 150.2099,8.5135 148.3109,8.5135 L33.5349,8.5135 C31.6359,8.5135 30.0889,10.0595 30.0889,11.9595 L30.0889,97.3545 C30.0889,99.2545 31.6359,100.8005 33.5349,100.8005 L144.4559,100.8005 C143.9079,100.6275 143.5039,100.1615 143.4209,99.5915 L143.3779,99.3005 L143.1589,97.8005 L33.5349,97.8005 C33.2899,97.8005 33.0889,97.5995 33.0889,97.3545 L33.0889,26.2785 L148.7559,26.2785 L148.7559,70.2635 L150.2559,71.0955 L151.7559,71.9285 L151.7559,11.9595 Z" id="Fill-8" fill="#999B9E" mask="url(#mask-2)"></path>
            <path d="M40.1914,14.7687 C38.5984,14.7687 37.3024,16.0647 37.3024,17.6577 C37.3024,19.2497 38.5984,20.5457 40.1914,20.5457 C41.7844,20.5457 43.0804,19.2497 43.0804,17.6577 C43.0804,16.0647 41.7844,14.7687 40.1914,14.7687" id="Fill-9" fill="#999B9E" mask="url(#mask-2)"></path>
            <path d="M47.6758,14.7687 C46.0828,14.7687 44.7868,16.0647 44.7868,17.6577 C44.7868,19.2497 46.0828,20.5457 47.6758,20.5457 C49.2688,20.5457 50.5638,19.2497 50.5638,17.6577 C50.5638,16.0647 49.2688,14.7687 47.6758,14.7687" id="Fill-10" fill="#999B9E" mask="url(#mask-2)"></path>
            <path d="M55.0909,14.7687 C53.4979,14.7687 52.2019,16.0647 52.2019,17.6577 C52.2019,19.2497 53.4979,20.5457 55.0909,20.5457 C56.6839,20.5457 57.9799,19.2497 57.9799,17.6577 C57.9799,16.0647 56.6839,14.7687 55.0909,14.7687" id="Fill-11" fill="#999B9E" mask="url(#mask-2)"></path>
        </g>
    </g>
</svg>

<svg width="181" height="117" viewBox="0 0 181 117" xmlns="http://www.w3.org/2000/svg" xmlns:xlink="http://www.w3.org/1999/xlink"><title>Page 1</title><defs><path id="a" d="M181 58.148V0H0v116.297h181z"/></defs><g fill="none" fill-rule="evenodd"><mask id="b" fill="#fff"><use xlink:href="#a"/></mask><path d="M43.343 58.669h95.361V35.083H43.343v23.586zm96.861 3a1.5 1.5 0 0 0 1.5-1.5V33.583a1.5 1.5 0 0 0-1.5-1.5H41.843a1.5 1.5 0 0 0-1.5 1.5v26.586a1.5 1.5 0 0 0 1.5 1.5h98.361zm19.917 22.807l-1.5.544-.73.265a1.492 1.492 0 0 0-.918.954 1.49 1.49 0 0 0 .148 1.222c.017.028.027.059.046.086l1.454 2.104 1.5 2.17 4.67 6.758a.34.34 0 0 1-.085.47l-3.404 2.354a.336.336 0 0 1-.471-.086l-.71-1.027-1.5-2.17-1.5-2.171-3.915-5.664a1.5 1.5 0 0 0-1.156-.646l-.078-.002c-.074 0-.145.013-.216.024a1.484 1.484 0 0 0-.923.5l-.577.672-1.5 1.748-2.844 3.316-3.785-25.881 6.63 3.68 1.5.832 1.5.832 5.364 2.978 1.5.832 1.5.833 4.876 2.706-4.876 1.767zm9.213-2.791l-9.213-5.113-1.5-.833-1.5-.832-5.365-2.978-1.5-.833-1.5-.832-7.824-4.343a1.501 1.501 0 0 0-2.212 1.529l.641 4.386.296 2.022L143.16 97.8l.22 1.5.042.29a1.494 1.494 0 0 0 1.035 1.21c.012.004.02.012.032.015.292.085.594.074.871-.015.261-.083.5-.233.685-.45l.901-1.05 1.287-1.5h.078c.246 0 .446-.2.446-.445v-.165l1.5-1.75 1.5-1.747.088-.103 5.277 7.636 1.24 1.795c.076.109.173.194.26.293.406.46.92.8 1.5.98.318.1.648.169.99.169a3.33 3.33 0 0 0 1.896-.591l3.404-2.353a3.344 3.344 0 0 0 .85-4.645l-6.52-9.432 8.376-3.035a1.499 1.499 0 0 0 .217-2.722z" fill="#EC2978" mask="url(#b)"/><path d="M148.756 97.19v.165c0 .245-.2.445-.445.445h-.078l-1.288 1.5-.901 1.05a1.493 1.493 0 0 1-.684.45h2.95a3.45 3.45 0 0 0 3.446-3.445v-3.662l-1.5 1.748-1.5 1.749zM44.233 74.399h93.58c.748 0 1.406-.213 1.845-.541l-.296-2.022a3.375 3.375 0 0 0-1.548-.355H44.233c-1.32 0-2.39.653-2.39 1.459s1.07 1.459 2.39 1.459m0 10.699h93.58c1.32 0 2.392-.653 2.392-1.46 0-.805-1.072-1.458-2.392-1.458h-93.58c-1.32 0-2.39.653-2.39 1.459s1.07 1.459 2.39 1.459" fill="#999B9E" mask="url(#b)"/><path d="M178 112.852c0 .245-.2.445-.445.445H3.445a.446.446 0 0 1-.445-.445v-3.891c0-.245.2-.445.445-.445h174.11c.245 0 .445.2.445.445v3.89zm-.445-7.336h-17.458c.006-.08.024-.156.024-.237v-.984a3.31 3.31 0 0 1-1.5-.981c-.087-.1-.184-.184-.26-.293l-1.24-1.795v4.053a.479.479 0 0 1-.069.237H23.755a.469.469 0 0 1-.069-.237V3.497c0-.274.221-.497.495-.497h132.443c.274 0 .497.223.497.497v71.41l1.5.832 1.5.833V3.497A3.5 3.5 0 0 0 156.624 0H24.181a3.5 3.5 0 0 0-3.495 3.497v101.782c0 .08.018.157.024.237H3.445A3.45 3.45 0 0 0 0 108.96v3.89a3.45 3.45 0 0 0 3.445 3.446h174.11a3.45 3.45 0 0 0 3.445-3.445v-3.891a3.45 3.45 0 0 0-3.445-3.445z" fill="#999B9E" mask="url(#b)"/><path d="M148.756 23.279H33.089v-11.32c0-.245.2-.445.446-.445H148.31c.245 0 .445.2.445.446v11.319zm3-11.32a3.45 3.45 0 0 0-3.445-3.445H33.535a3.45 3.45 0 0 0-3.446 3.446v85.394a3.45 3.45 0 0 0 3.446 3.447h110.92a1.496 1.496 0 0 1-1.034-1.21l-.043-.29-.22-1.5H33.536a.448.448 0 0 1-.446-.447V26.28h115.667v43.984l1.5.832 1.5.834V11.96z" fill="#999B9E" mask="url(#b)"/><path d="M40.191 14.769a2.892 2.892 0 0 0-2.889 2.889 2.892 2.892 0 0 0 2.89 2.888 2.892 2.892 0 0 0 2.888-2.888 2.892 2.892 0 0 0-2.889-2.89m7.485.001a2.892 2.892 0 0 0-2.89 2.889 2.892 2.892 0 0 0 2.89 2.888 2.891 2.891 0 0 0 2.888-2.888 2.891 2.891 0 0 0-2.888-2.89m7.414.001a2.892 2.892 0 0 0-2.888 2.889 2.892 2.892 0 0 0 2.889 2.888 2.892 2.892 0 0 0 2.889-2.888 2.892 2.892 0 0 0-2.89-2.89" fill="#999B9E" mask="url(#b)"/></g></svg>
